!!!!SEGMENT: pl-wtm--r-759-m--004_moniuszko-stanislaw--studia-berlinskie-iii-schluss-chor.krn
!!!cenid: 18xx:2880
!!!COM: Moniuszko, Stanisław
!!!COM-rismid: pe30008351
!!!CDT: 1819/05/05-1872/06/04
!!!CNT: Polish
!!!GTL: Studia berlińskie III
!!!OTL: Schluss Chor
!!!PDT:
!!!AGN:
!!!SMS-siglum: PL-Wtm
!!!SMS-shelfmark: R 759/M
!!!SMS-shelfwork: 004 G
!!!SMS-variant:
!!!SMS-altvar:
!!!NIFC-rismid: 1001097415
!!!URL-scan: http://repozytorium.nifc.pl/skany/pl-wtm-nut--r759m
!!!ONB-nifc: UWAGA: skany 0056-0059
**kern	**dynam	**kern	**dynam	**kern	**dynam	**kern	**text	**dynam	**kern	**text	**dynam	**kern	**text	**dynam	**kern	**dynam	**kern	**dynam	**kern	**dynam	**kern	**dynam	**kern	**dynam	**kern	**dynam	**kern	**dynam	**kern	**dynam	**kern	**dynam	**kern	**dynam
*part16	*part16	*part15	*part15	*part14	*part14	*part13	*part13	*part13	*part12	*part12	*part12	*part11	*part11	*part11	*part10	*part10	*part9	*part9	*part8	*part8	*part7	*part7	*part6	*part6	*part5	*part5	*part4	*part4	*part3	*part3	*part2	*part2	*part1	*part1
*staff16	*	*staff15	*	*staff14	*	*staff13	*staff13	*	*staff12	*staff12	*	*staff11	*staff11	*	*staff10	*	*staff9	*	*staff8	*	*staff7	*	*staff6	*	*staff5	*	*staff4	*	*staff3	*	*staff2	*	*staff1	*
*Iempty	*	*Icello	*	*Iempty	*	*Iempty	*	*	*Iempty	*	*	*Ivox	*	*	*Iviola	*	*Ivioln	*	*Ivioln	*	*Itimp	*	*Iempty	*	*Iempty	*	*Ifagot	*	*Iempty	*	*Ioboe	*	*Iflt	*
*I"B.	*	*I"Cello	*	*I"	*	*I"	*	*	*I"	*	*	*I"Chor.	*	*	*I"vla.	*	*I"v. 2.	*	*I"v. 1.	*	*I"F. A. Timp.	*	*I"in F. Trom.	*	*I"in F. Cor.	*	*I"Fag.	*	*I"Cl.	*	*I"Ob.	*	*I"Fl.	*
*I'cb	*	*I'vlc	*	*I'[B coro]	*	*I'[T coro]	*	*	*I'[A coro]	*	*	*I'[S coro]	*	*	*I'vla	*	*I'vl 2	*	*I'vl 1	*	*I'timp	*	*I'tr	*	*I'cor	*	*I'fag	*	*I'cl	*	*I'ob	*	*I'fl	*
*clefF4	*	*clefF4	*	*clefF4	*	*clefC4	*	*	*clefC3	*	*	*clefC1	*	*	*clefC3	*	*clefG2	*	*clefG2	*	*clefF4	*	*clefG2	*	*clefG2	*	*clefF4	*	*clefG2	*	*clefG2	*	*clefG2	*
*ITrd0c0	*	*	*	*	*	*	*	*	*	*	*	*	*	*	*	*	*	*	*	*	*	*	*ITrd-3c-5	*	*ITrd4c7	*	*	*	*	*	*	*	*	*
*k[b-]	*	*k[b-]	*	*k[b-]	*	*k[b-]	*	*	*k[b-]	*	*	*k[b-]	*	*	*k[b-]	*	*k[b-]	*	*k[b-]	*	*k[b-]	*	*k[b-]	*	*k[b-]	*	*k[b-]	*	*k[b-]	*	*k[b-]	*	*k[b-]	*
*F:	*	*F:	*	*F:	*	*F:	*	*	*F:	*	*	*F:	*	*	*F:	*	*F:	*	*F:	*	*F:	*	*F:	*	*F:	*	*F:	*	*F:	*	*F:	*	*F:	*
*M4/4	*	*M4/4	*	*M4/4	*	*M4/4	*	*	*M4/4	*	*	*M4/4	*	*	*M4/4	*	*M4/4	*	*M4/4	*	*M4/4	*	*M4/4	*	*M4/4	*	*M4/4	*	*M4/4	*	*M4/4	*	*M4/4	*
*met(c)	*	*met(c)	*	*met(c)	*	*met(c)	*	*	*met(c)	*	*	*met(c)	*	*	*met(c)	*	*met(c)	*	*met(c)	*	*met(c)	*	*met(c)	*	*met(c)	*	*met(c)	*	*met(c)	*	*met(c)	*	*met(c)	*
=1	=1	=1	=1	=1	=1	=1	=1	=1	=1	=1	=1	=1	=1	=1	=1	=1	=1	=1	=1	=1	=1	=1	=1	=1	=1	=1	=1	=1	=1	=1	=1	=1	=1	=1
*	*	*	*	*	*	*	*	*	*	*	*	*	*	*	*	*	*	*	*	*	*	*	*	*	*^	*	*	*	*	*	*	*	*	*
!	!	!	!	!	!	!	!	!	!	!	!	!	!	!	!	!	!	!	!	!	!	!	!	!	!LO:SIC:v:s=c	!	!	!	!	!	!	!	!	!	!
!	!LO:DY:b:rj	!	!LO:DY:b:rj	!	!	!	!	!	!	!	!	!	!	!	!	!	!	!LO:DY:b:rj	!	!LO:DY:b:rj	!	!LO:DY:b:rj	!	!LO:DY:b:rj	!	!	!LO:DY:b:rj	!	!LO:DY:b:rj	!	!LO:DY:b:rj	!	!LO:DY:b:rj	!	!
4FF/	ff	4FF/	ff	4.F\	.	4.c\	.	.	4.a\	.	.	4.ff\	Wohl	.	4F/	.	4.ff 4.a\	ff	4.ff 4.a\	ff	4F\	ff	4.ff 4.f/	ff	4f 4G/	4ryy	ff	4F 4FF/	ff	4.ff 4.a\	ff	4.ff 4.a\	ff	4.fff\	ff
4C/	.	4C/	.	.	.	.	.	.	.	.	.	.	.	.	4c/	.	.	.	.	.	4r	.	.	.	4c/	4c\	.	4c 4C\	.	.	.	.	.	.	.
.	.	.	.	8F\	.	8c\	.	.	8a\	.	.	8cc\	ge-	.	.	.	8cc 8a\	.	8cc 8a\	.	.	.	8cc 8a/	.	.	.	.	.	.	8cc 8a\	.	8cc 8a\	.	8ccc\	.
4AA/	.	4AA/	.	4F\	.	4c\	.	.	4a\	.	.	4cc\	-spro-	.	4A/	.	4cc 4a\	.	4cc 4a\	.	2r	.	4cc 4a/	.	4A/	4A\	.	4A 4AA\	.	4cc 4a\	.	4cc 4a\	.	4ccc\	.
4C/	.	4C/	.	4F\	.	4c\	.	.	4a\	.	.	4cc\	-chen	.	4c/	.	4cc 4a\	.	4cc 4a\	.	.	.	4cc 4a/	.	4c/	4c\	.	4c 4C\	.	4cc 4a\	.	4cc 4a\	.	4ccc\	.
=2	=2	=2	=2	=2	=2	=2	=2	=2	=2	=2	=2	=2	=2	=2	=2	=2	=2	=2	=2	=2	=2	=2	=2	=2	=2	=2	=2	=2	=2	=2	=2	=2	=2	=2	=2
*	*	*	*	*	*	*	*	*	*	*	*	*	*	*	*rep	*	*rep	*	*rep	*	*rep	*	*rep	*	*rep	*rep	*	*rep	*	*rep	*	*rep	*	*rep	*
!	!	!	!	!	!	!	!	!	!	!	!	!	!	!	!	!	!	!	!	!	!	!	!	!	!LO:SIC:v:s=c	!	!	!	!	!	!	!	!	!	!
4FF/	.	4FF/	.	4.F\	.	4.f\	.	.	4.a\	.	.	4.cc\	wohl	.	4F/	.	4.ff 4.a\	.	4.ff 4.a\	.	4F\	.	4.ff 4.f/	.	4f 4G/	4ryy	.	4F 4FF/	.	4.ff 4.a\	.	4.ff 4.a\	.	4.fff\	.
!	!	!LO:TX:a:i:t=Col. CB	!	!	!	!	!	!	!	!	!	!	!	!	!	!	!	!	!	!	!	!	!	!	!	!	!	!	!	!	!	!	!	!	!
4C/	.	4C/yy	.	.	.	.	.	.	.	.	.	.	.	.	4c/	.	.	.	.	.	4r	.	.	.	4c/	4c\	.	4c 4C\	.	.	.	.	.	.	.
.	.	.	.	8F\	.	8c\	.	.	8a\	.	.	8cc\	ge-	.	.	.	8cc 8a\	.	8cc 8a\	.	.	.	8cc 8a/	.	.	.	.	.	.	8cc 8a\	.	8cc 8a\	.	8ccc\	.
4AA/	.	4AA/yy	.	4F\	.	4c\	.	.	4a\	.	.	4cc\	-spro-	.	4A/	.	4cc 4a\	.	4cc 4a\	.	2r	.	4cc 4a/	.	4A/	4A\	.	4A 4AA\	.	4cc 4a\	.	4cc 4a\	.	4ccc\	.
4C/	.	4C/yy	.	4F\	.	4c\	.	.	4a\	.	.	4cc\	-chen!	.	4c/	.	4cc 4a\	.	4cc 4a\	.	.	.	4cc 4a/	.	4c/	4c\	.	4c 4C\	.	4cc 4a\	.	4cc 4a\	.	4ccc\	.
*	*	*	*	*	*	*	*	*	*	*	*	*	*	*	*Xrep	*	*Xrep	*	*Xrep	*	*Xrep	*	*Xrep	*	*Xrep	*Xrep	*	*Xrep	*	*Xrep	*	*Xrep	*	*Xrep	*
*	*	*	*	*	*	*	*	*	*	*	*	*	*	*	*	*	*	*	*	*	*	*	*	*	*v	*v	*	*	*	*	*	*	*	*	*
=3	=3	=3	=3	=3	=3	=3	=3	=3	=3	=3	=3	=3	=3	=3	=3	=3	=3	=3	=3	=3	=3	=3	=3	=3	=3	=3	=3	=3	=3	=3	=3	=3	=3	=3
*	*	*	*	*	*	*	*	*	*	*	*	*	*	*	*	*	*	*	*	*	*	*	*	*	*	*	*	*	*^	*	*^	*	*	*
!	!	!	!	!	!	!	!	!	!	!	!	!	!	!	!	!	!	!	!	!	!	!	!	!	!	!	!	!	!LO:TX:a:i:t=Col. Oboe	!	!	!	!	!	!	!
4FF/	.	4FF/yy	.	4F\	.	4f\	.	.	4a\	.	.	4cc\	Kö-	.	4F/	.	4cc 4a\	.	4cc 4a\	.	4F\	.	4ff 4f/	.	4f 4F/	.	4F 4FF/	.	4cc/yy	4a\yy	.	4cc/	4a\	.	4ccc\	.
4F\	.	4F\yy	.	4F\	.	4f\	.	.	4g#X\	.	.	4bn\	-nig	.	4f\	.	4g#X/	.	(>8bn\L	.	8F\L	.	8ffL 8f/	.	8fL 8F/	.	8FL 8FF/	.	y(8bn/Lyy	4g#X\yy	.	(>8bn/L	4g#X\	.	(>8bbn\L	.
.	.	.	.	.	.	.	.	.	.	.	.	.	.	.	.	.	.	.	8dd\J)	.	8F\J	.	8ffJ 8f/	.	8fJ 8F/	.	8FJ 8FF/	.	8dd/J)yy	.	.	8dd/J)	.	.	8ddd\J)	.
4FF/	.	4FF/yy	.	4F\	.	4f\	.	.	4a\	.	.	4cc\	Mi-	.	4F/	.	4a/	.	4cc\	.	4F\	.	4ff 4f/	.	4f 4F/	.	4F 4FF/	.	4cc/yy	4a\yy	.	4cc/	4a\	.	4ccc\	.
4F\	.	4F\yy	.	4F\	.	4f\	.	.	4g#\	.	.	4b\	-das	.	4f\	.	4g#/	.	(>8b\L	.	4F\	.	4ff 4f/	.	4f 4F/	.	4F 4FF/	.	(y8b/Lyy	4g#X\yy	.	(>8b/L	4g#X\	.	(>8bb\L	.
.	.	.	.	.	.	.	.	.	.	.	.	.	.	.	.	.	.	.	8dd\J)	.	.	.	.	.	.	.	.	.	8dd/J)yy	.	.	8dd/J)	.	.	8ddd\J)	.
*	*	*	*	*	*	*	*	*	*	*	*	*	*	*	*	*	*	*	*	*	*	*	*	*	*	*	*	*	*v	*v	*	*	*	*	*	*
*	*	*	*	*	*	*	*	*	*	*	*	*	*	*	*	*	*	*	*	*	*	*	*	*	*	*	*	*	*	*	*v	*v	*	*	*
=4	=4	=4	=4	=4	=4	=4	=4	=4	=4	=4	=4	=4	=4	=4	=4	=4	=4	=4	=4	=4	=4	=4	=4	=4	=4	=4	=4	=4	=4	=4	=4	=4	=4	=4
4FF/	.	4FF/	.	4F\	.	4f\	.	.	4a\	.	.	4cc\	le-	.	4F/	.	4a/	.	4cc\	.	4F\	.	4ff 4f/	.	4f 4F/	.	4F 4FF/	.	4ccyy 4a\yy	.	4cc 4a\	.	4ccc\	.
4FF^</	.	4F\	.	4F\	.	4c\	.	.	4a\	.	.	4ff\	-be	.	4c 4F/	.	4ff 4a\	.	4ff 4a\	.	4F\	.	4ff 4f/	.	4f 4F/	.	4F 4FF/	.	4ffyy 4a\yy	.	4ff 4a\	.	4fff\	.
4FF/	.	4c\	.	4F^<\	.	4f^<\	.	.	4cc^<\	.	.	4aa^<\	hoch!	.	4c 4F^</	.	4ff 4a^<\	.	4aa 4a^<\	.	4F^>\	.	4ff 4f^</	.	4f 4F^</	.	4c 4C^>\	.	4aayy 4cc^<\yy	.	4aa 4cc^<\	.	4aaa^<\	.
4r	.	4B-X\	.	4r	.	4r	.	.	4r	.	.	4r	.	.	4B-X/	.	4r	.	4r	.	4r	.	4r	.	4r	.	4B-X 4BB-\	.	4ryy	.	4r	.	4r	.
=5	=5	=5	=5	=5	=5	=5	=5	=5	=5	=5	=5	=5	=5	=5	=5	=5	=5	=5	=5	=5	=5	=5	=5	=5	=5	=5	=5	=5	=5	=5	=5	=5	=5	=5
*	*	*	*	*	*	*	*	*	*	*	*	*	*	*	*	*	*	*	*	*	*	*	*	*	*	*	*^	*	*	*	*	*	*	*
!	!	!	!	!	!	!	!	!	!	!	!	!	!	!	!	!	!	!	!	!	!	!	!LO:TX:a:i:t=Col Corni	!	!	!	!	!	!	!	!	!	!	!	!
4AA/	.	4A\	.	4.A\	.	4.c#X\	.	.	4.a\	.	.	4.ee\	Wohl	.	4A/	.	4.aa 4.cc#X 4.e\	.	4.aa 4.a\	.	4AA/	.	4.aayy 4.a/yy	.	4.a 4.A/	.	4A 4AA\	4ryy	.	4.aayy 4.cc#X\yy	.	4.aa 4.cc#X\	.	4.aaa\	.
4E\	.	4E\	.	.	.	.	.	.	.	.	.	.	.	.	4e\	.	.	.	.	.	4r	.	.	.	.	.	4E/	4E\	.	.	.	.	.	.	.
.	.	.	.	8A\	.	8c#\	.	.	8e\	.	.	8ee\	ge-	.	.	.	8cc# 8e\	.	8ee 8a\	.	.	.	8aayy 8a/yy	.	8a 8A/	.	.	.	.	8eeyy 8cc#\yy	.	8ee 8cc#\	.	8eee\	.
4C#X\	.	4C#X\	.	4A\	.	4c#\	.	.	4e\	.	.	4ee\	-spro-	.	4c#X\	.	4cc# 4e\	.	4ee 4a\	.	2r	.	4aayy 4a/yy	.	4a 4A/	.	4C#X/	4C#\	.	4eeyy 4cc#\yy	.	4ee 4cc#\	.	4eee\	.
4E\	.	4E\	.	4A\	.	4c#\	.	.	4e\	.	.	4ee\	-chen,	.	4e\	.	4cc# 4e\	.	4ee 4a\	.	.	.	4aayy 4a/yy	.	4a 4A/	.	4E/	4E\	.	4eeyy 4cc#\yy	.	4ee 4cc#\	.	4eee\	.
=6	=6	=6	=6	=6	=6	=6	=6	=6	=6	=6	=6	=6	=6	=6	=6	=6	=6	=6	=6	=6	=6	=6	=6	=6	=6	=6	=6	=6	=6	=6	=6	=6	=6	=6	=6
*rep	*	*	*	*	*	*	*	*	*	*	*	*	*	*	*rep	*	*rep	*	*rep	*	*	*	*	*	*rep	*	*rep	*rep	*	*	*	*rep	*	*rep	*
4AA/	.	4AA/	.	4.A\	.	4.c#X\	.	.	4.e\	.	.	4.aa\	wohl	.	4A/	.	4.aa 4.cc#X 4.e\	.	4.aa 4.a\	.	4AA/	.	4.aayy 4.a/yy	.	4.a 4.A/	.	4A 4AA\	4ryy	.	4.aayy 4.cc#X\yy	.	4.aa 4.cc#X\	.	4.aaa\	.
4E\	.	4E\	.	.	.	.	.	.	.	.	.	.	.	.	4e\	.	.	.	.	.	4r	.	.	.	.	.	4E/	4E\	.	.	.	.	.	.	.
.	.	.	.	8A\	.	8c#\	.	.	8e\	.	.	8ee\	ge-	.	.	.	8cc# 8e\	.	8ee 8a\	.	.	.	8aayy 8a/yy	.	8a 8A/	.	.	.	.	8eeyy 8cc#\yy	.	8ee 8cc#\	.	8eee\	.
4C#X\	.	4C#X\	.	4A\	.	4c#\	.	.	4e\	.	.	4ee\	-spro-	.	4c#X\	.	4cc# 4e\	.	4ee 4a\	.	2r	.	4aayy 4a/yy	.	4a 4A/	.	4C#X/	4C#\	.	4eeyy 4cc#\yy	.	4ee 4cc#\	.	4eee\	.
4E\	.	4E\	.	4A\	.	4c#\	.	.	4e\	.	.	4ee\	-chen	.	4e\	.	4cc# 4e\	.	4ee 4a\	.	.	.	4aayy 4a/yy	.	4a 4A/	.	4E/	4E\	.	4eeyy 4cc#\yy	.	4ee 4cc#\	.	4eee\	.
*Xrep	*	*	*	*	*	*	*	*	*	*	*	*	*	*	*Xrep	*	*Xrep	*	*Xrep	*	*	*	*	*	*Xrep	*	*Xrep	*Xrep	*	*	*	*Xrep	*	*Xrep	*
=7	=7	=7	=7	=7	=7	=7	=7	=7	=7	=7	=7	=7	=7	=7	=7	=7	=7	=7	=7	=7	=7	=7	=7	=7	=7	=7	=7	=7	=7	=7	=7	=7	=7	=7	=7
*	*	*	*	*	*	*	*	*	*	*	*	*	*	*	*	*	*	*	*	*	*	*	*	*	*	*	*	*	*	*^	*	*^	*	*	*
!	!	!	!	!	!	!	!	!	!	!	!	!	!	!	!	!	!LO:SIC:v:s=cc#	!	!	!	!	!	!	!	!	!	!	!	!	!	!	!	!	!	!	!	!
4AA/	.	4AA/	.	4A\	.	4c#X\	.	.	4a\	.	.	4ee\	Kö-	.	4A/	.	4cc\	.	4ee\	.	4AA/	.	4aayy 4a/yy	.	4a 4A/	.	4A\	4AA\	.	4eeyy 4cc#X\yy	4ryyyy	.	4ee 4cc#X\	4ryy	.	4eee\	.
4A\	.	4A\	.	4A\	.	4B#X\	.	.	4a\	.	.	4dd#X\	-nig	.	4a\	.	4b#X\	.	(>8dd#X\L	.	8AA/L	.	8aaLyy 8a/yy	.	8aL 8A/	.	8AL 8AA\	4ryy	.	(y8dd#X/Lyy	4b#X\yy	.	(>8dd#X/L	4b#X\	.	8ddd#X\L	.
.	.	.	.	.	.	.	.	.	.	.	.	.	.	.	.	.	.	.	8ff#X\J)	.	8AA/J	.	8aaJyy 8a/yy	.	8aJ 8A/	.	8AJ 8AA\	.	.	8ff#X/J)yy	.	.	8ff#X/J)	.	.	8fff#X\J	.
!	!	!	!	!	!	!	!	!	!	!	!	!	!	!	!	!	!LO:SIC:v:s=cc#	!	!	!	!	!	!	!	!	!	!	!	!	!	!	!	!	!	!	!	!
4AA/	.	4AA/	.	4A\	.	4c#\	.	.	4a\	.	.	4ee\	Mi-	.	4A/	.	4cc\	.	4ee\	.	4AA/	.	4aayy 4a/yy	.	4a 4A/	.	4A\	4AA\	.	4ee/yy	4cc#\yy	.	4ee/	4cc#\	.	4eee\	.
4A\	.	4A\	.	4A\	.	4B#\	.	.	4a\	.	.	4dd#\	-das	.	4a\	.	4b#X\	.	(>8dd#\L	.	4AA/	.	4aayy 4a/yy	.	4a 4A/	.	4A\	4AA\	.	(y8dd#/Lyy	4b#\yy	.	(>8dd#/L	4b#\	.	8ddd#\L	.
.	.	.	.	.	.	.	.	.	.	.	.	.	.	.	.	.	.	.	8ff#\J)	.	.	.	.	.	.	.	.	.	.	8ff#/J)yy	.	.	8ff#/J)	.	.	8fff#\J	.
*	*	*	*	*	*	*	*	*	*	*	*	*	*	*	*	*	*	*	*	*	*	*	*	*	*	*	*	*	*	*v	*v	*	*	*	*	*	*
*	*	*	*	*	*	*	*	*	*	*	*	*	*	*	*	*	*	*	*	*	*	*	*	*	*	*	*	*	*	*	*	*v	*v	*	*	*
=8	=8	=8	=8	=8	=8	=8	=8	=8	=8	=8	=8	=8	=8	=8	=8	=8	=8	=8	=8	=8	=8	=8	=8	=8	=8	=8	=8	=8	=8	=8	=8	=8	=8	=8	=8
!	!	!	!	!	!	!LO:SIC:v:s=c#	!	!	!	!	!	!	!	!	!	!	!	!	!	!	!	!	!	!	!	!	!	!	!	!	!	!	!	!	!
4AA/	.	4AA/	.	4A\	.	4c\	.	.	4a\	.	.	4ee\	le-	.	4A/	.	4cc#X\	.	4ee\	.	4AA/	.	4aayy 4a/yy	.	4a 4A/	.	4A\	4AA\	.	4eeyy 4cc#X\yy	.	4ee 4cc#X\	.	4eee\	.
!	!	!	!	!	!	!LO:SIC:v:s=c#	!	!	!	!	!	!	!	!	!	!	!	!	!	!	!	!	!	!	!	!	!	!	!	!	!	!	!	!	!
4AA/	.	4A\	.	4A\	.	4c\	.	.	4a\	.	.	4ee\	-be	.	4a\	.	4cc#\	.	4aa 4a\	.	4AA/	.	4aayy 4a/yy	.	4a 4A/	.	4A\	4AA\	.	4aayy 4cc#\yy	.	4aa 4cc#\	.	4aaa\	.
!LO:TX:t=P:problem:mixed beam	!	!	!	!	!	!	!	!	!	!	!	!	!	!	!LO:TX:t=P:problem:mixed beam	!	!	!	!	!	!	!	!	!	!	!	!	!	!	!	!	!	!	!	!
8AA^</L	.	8A^<\L	.	4A^<\	.	4e^<\	.	.	4cc^<\	.	.	4aa^<\	hoch!	.	8A^</L	.	4ee 4a^<\	.	4ccc#X 4a^<\	.	4AA/	.	4aayy 4a^>/yy	.	4a 4A^</	.	(>8A/L	8A^<\L	.	4ccc#Xyy 4ee^\yy	.	4ccc#X 4ee^>\	.	4aaa^>\	.
8G\	.	8G\	.	.	.	.	.	.	.	.	.	.	.	.	8g\	.	.	.	.	.	.	.	.	.	.	.	8G/	8G\	.	.	.	.	.	.	.
8F\	.	8F\	.	4r	.	4r	.	.	4r	.	.	4r	.	.	8f\	.	4r	.	4r	.	4r	.	4ryy	.	4r	.	8F/	8F\	.	4ryy	.	4r	.	4r	.
8E\J	.	8E\J	.	.	.	.	.	.	.	.	.	.	.	.	8e\J	.	.	.	.	.	.	.	.	.	.	.	8E/J)	8E\J	.	.	.	.	.	.	.
!!LO:PB:g=original
=9	=9	=9	=9	=9	=9	=9	=9	=9	=9	=9	=9	=9	=9	=9	=9	=9	=9	=9	=9	=9	=9	=9	=9	=9	=9	=9	=9	=9	=9	=9	=9	=9	=9	=9	=9
!LO:TX:a:i:t=Col Cello	!	!	!	!	!	!	!	!	!	!	!	!	!	!	!	!	!	!	!	!	!	!	!	!	!	!	!	!	!	!	!	!	!	!	!
!	!LO:DY:b:rj	!	!LO:DY:b:rj	!	!LO:DY:b:rj	!	!	!LO:DY:b	!	!	!LO:DY:b:rj	!	!	!	!	!LO:DY:b:rj	!	!LO:DY:b:rj	!	!LO:DY:b:rj	!	!	!	!LO:DY:b:rj	!	!LO:DY:b:rj	!	!	!LO:DY:b:rj	!	!	!	!	!	!
4D/yy	sf	4D/	sf	4.D\	fp	4.A\	.	fp	4.f\	.	fp	4.dd\	tra-	fp	4a 4d\	sf	4ff 4a 4d\	sf	4ddd 4dd 4d\	sf	4AA/	sf	4aa 4a\	sf	4f 4A/	sf	4D/	4D\	sf	4aa 4dd\	sf	4ddd 4ff\	sf	4aaa\	sf
4ryy	.	4r	.	.	.	.	.	.	.	.	.	.	.	.	4r	.	4r	.	4r	.	4r	.	4r	.	4r	.	4r	4ryy	.	4r	.	4r	.	4r	.
.	.	.	.	8D\	.	8A'\	.	.	8f'\	.	.	8a'\	-ge	.	.	.	.	.	.	.	.	.	.	.	.	.	.	.	.	.	.	.	.	.	.
2ryy	.	2r	.	4D\	.	4d'\	.	.	4f'\	.	.	4a'\	leicht	.	2r	.	2r	.	2r	.	2r	.	2r	.	2r	.	2r	2ryy	.	2r	.	2r	.	2r	.
.	.	.	.	4G\	.	4d'\	.	.	4f'\	.	.	4bn'\	die	.	.	.	.	.	.	.	.	.	.	.	.	.	.	.	.	.	.	.	.	.	.
*	*	*	*	*	*	*	*	*	*	*	*	*	*	*	*	*	*	*	*	*	*	*	*	*	*	*	*v	*v	*	*	*	*	*	*	*
=10	=10	=10	=10	=10	=10	=10	=10	=10	=10	=10	=10	=10	=10	=10	=10	=10	=10	=10	=10	=10	=10	=10	=10	=10	=10	=10	=10	=10	=10	=10	=10	=10	=10	=10
1ryy	.	1r	.	4C/	.	4c'\	.	.	4e'\	.	.	4cc'\	ne-	.	1ryy	.	1r	.	1r	.	1ryy	.	1ryy	.	4r	.	1r	.	1r	.	4r	p	1r	.
!	!	!	!	!	!	!	!	!	!	!	!	!	!	!	!	!	!	!	!	!	!	!	!	!	!	!LO:DY:b:rj	!	!	!	!	!	!	!	!
.	.	.	.	4C/	.	4c'\	.	.	4e'\	.	.	4g'\	-ue	.	.	.	.	.	.	.	.	.	.	.	4g 4c'\	p	.	.	.	.	4gg 4ee'\	.	.	.
.	.	.	.	4F\	.	4c'\	.	.	4f'\	.	.	4a'\	Bür-	.	.	.	.	.	.	.	.	.	.	.	4a 4f'\	.	.	.	.	.	4aa 4ff'\	.	.	.
.	.	.	.	4F\	.	4A'\	.	.	4f'\	.	.	4a'\	-de,	.	.	.	.	.	.	.	.	.	.	.	4a 4f'\	.	.	.	.	.	4aa 4ff'\	.	.	.
=11	=11	=11	=11	=11	=11	=11	=11	=11	=11	=11	=11	=11	=11	=11	=11	=11	=11	=11	=11	=11	=11	=11	=11	=11	=11	=11	=11	=11	=11	=11	=11	=11	=11	=11
*	*	*	*	*	*	*	*	*	*	*	*	*	*	*	*	*	*	*	*	*	*	*	*	*	*	*	*^	*	*	*	*	*	*	*
!	!LO:DY:b:rj	!	!LO:DY:b:rj	!	!	!	!	!	!	!	!LO:DY:b	!	!	!LO:DY:b	!	!LO:DY:b:rj	!	!LO:DY:b:rj	!	!LO:DY:b:rj	!	!LO:DY:b:rj	!	!	!	!	!	!	!	!	!	!	!	!	!
4D/yy	sf	4D/	sf	4.D\	.	4.A\	.	.	4.f\	.	fp	4.dd'\	tra-	fp	4a 4d\	sf	4ff 4a 4d\	sf	4ddd 4dd 4d\	sf	4AA/	sf	4aa 4a\	sf	4f 4A/	sf	4D/	4D\	sf	4aa 4dd\	sf	4ddd 4ff\	sf	4aaa\	sf
4ryy	.	4r	.	.	.	.	.	.	.	.	.	.	.	.	4r	.	4r	.	4r	.	4r	.	4r	.	4r	.	4r	4ryy	.	4r	.	4r	.	4r	.
.	.	.	.	8D'\	.	8A'\	.	.	8f'\	.	.	8a'\	-ge	.	.	.	.	.	.	.	.	.	.	.	.	.	.	.	.	.	.	.	.	.	.
2ryy	.	2r	.	4D'\	.	4d'\	.	.	4f'\	.	.	4a'\	leicht	.	2r	.	2r	.	2r	.	2r	.	2r	.	2r	.	2r	2ryy	.	2r	.	2r	.	2r	.
.	.	.	.	4G'\	.	4d'\	.	.	4f'\	.	.	4bn'\	die	.	.	.	.	.	.	.	.	.	.	.	.	.	.	.	.	.	.	.	.	.	.
*	*	*	*	*	*	*	*	*	*	*	*	*	*	*	*	*	*	*	*	*	*	*	*	*	*	*	*v	*v	*	*	*	*	*	*	*
=12	=12	=12	=12	=12	=12	=12	=12	=12	=12	=12	=12	=12	=12	=12	=12	=12	=12	=12	=12	=12	=12	=12	=12	=12	=12	=12	=12	=12	=12	=12	=12	=12	=12	=12
1ryy	.	1r	.	4C'/	.	4c'\	.	.	4e'\	.	.	4cc'\	ne-	.	1ryy	.	1r	.	1r	.	1r	.	1r	.	4r	p	1r	.	4r	p	4r	.	1r	.
.	.	.	.	4C'/	.	4c'\	.	.	4e'\	.	.	4g'\	-ue	.	.	.	.	.	.	.	.	.	.	.	4A 4C'/	.	.	.	4ee 4g'\	.	4gg 4ee'\	.	.	.
.	.	.	.	4F'\	.	4c'\	.	.	4f'\	.	.	4a'\	Bür-	.	.	.	.	.	.	.	.	.	.	.	4c 4F'/	.	.	.	4ff 4a'\	.	4aa 4ff'\	.	.	.
.	.	.	.	4F'\	.	4e-X'\	.	.	4f'\	.	.	4a'\	-de	.	.	.	.	.	.	.	.	.	.	.	4c 4F'/	.	.	.	4ee-X 4cc'\	.	4aa 4ee-X'\	.	.	.
=13	=13	=13	=13	=13	=13	=13	=13	=13	=13	=13	=13	=13	=13	=13	=13	=13	=13	=13	=13	=13	=13	=13	=13	=13	=13	=13	=13	=13	=13	=13	=13	=13	=13	=13
!	!	!	!	!	!	!	!	!	!	!	!	!	!	!	!	!	!	!	!	!	!	!	!	!	!	!	!	!	!	!	!	!LO:DY:b:rj	!	!LO:DY:a:rj
!	!LO:DY:b	!	!LO:DY:b	!	!LO:DY:b:rj	!	!	!LO:DY:b:rj	!	!	!LO:DY:b	!	!	!LO:DY:b	!	!	!LO:TX:a:i:t=Col 1mo	!	!	!LO:DY:b:rj	!	!	!	!	!	!	!	!LO:DY:b:rj	!	!	!	!	!	!
4BB-\yy	f	4BB-\	f	4.BB-/	f	4.d\	.	f	4.f\	.	f	4.b-\	und	f	4B-\	.	4.b-yy 4.d/yy	f	4.b- 4.d/	f	1r	.	1r	.	4f 4F/	.	4B- 4BB-\	f	4dd 4b-\	f	4bb- 4dd\	f	4fff\	f
4F\yy	.	4F\	.	.	.	.	.	.	.	.	.	.	.	.	4f\	.	.	.	.	.	.	.	.	.	4r	.	4F\	.	4r	.	4r	.	4r	.
.	.	.	.	8BB-/	.	8d\	.	.	8B-X/	.	.	8f/	mit	.	.	.	8fyy 8d/yy	.	8f 8d/	.	.	.	.	.	.	.	.	.	.	.	.	.	.	.
4D\yy	.	4D\	.	4BB-/	.	4d\	.	.	4B-/	.	.	4f/	ei-	.	4d\	.	4fyy 4d/yy	.	4f 4d/	.	.	.	.	.	2r	.	4D\	.	2r	.	2r	.	2r	.
4F\yy	.	4F\	.	4BB-/	.	4d\	.	.	4B-/	.	.	4f/	-nen	.	4f\	.	4fyy 4d/yy	.	4f 4d/	.	.	.	.	.	.	.	4F\	.	.	.	.	.	.	.
=14	=14	=14	=14	=14	=14	=14	=14	=14	=14	=14	=14	=14	=14	=14	=14	=14	=14	=14	=14	=14	=14	=14	=14	=14	=14	=14	=14	=14	=14	=14	=14	=14	=14	=14
*	*	*rep	*	*	*	*	*	*	*	*	*	*	*	*	*rep	*	*	*	*rep	*	*	*	*	*	*	*	*rep	*	*	*	*	*	*	*
4BB-\yy	.	4BB-\	.	4.BB-/	.	4.B-\	.	.	4.d\	.	.	4.f/	Oh-	.	4B-/	.	4.b-yy 4.d/yy	.	4.b- 4.d/	.	1r	.	1r	.	4f 4F/	.	4B- 4BB-\	.	4dd 4b-\	.	4bb- 4dd\	.	4fff\	.
4F\yy	.	4F\	.	.	.	.	.	.	.	.	.	.	.	.	4f\	.	.	.	.	.	.	.	.	.	4r	.	4F\	.	4r	.	4r	.	4r	.
.	.	.	.	8BB-/	.	8F/	.	.	8d\	.	.	8f/	-ren	.	.	.	8fyy 8d/yy	.	8f 8d/	.	.	.	.	.	.	.	.	.	.	.	.	.	.	.
4D\yy	.	4D\	.	4BB-/	.	4F/	.	.	4d\	.	.	4f/	woch-	.	4d\	.	4fyy 4d/yy	.	4f 4d/	.	.	.	.	.	2r	.	4D\	.	2r	.	2r	.	2r	.
4F\yy	.	4F\	.	4BB-/	.	4F/	.	.	4d\	.	.	4f/	-se	.	4f\	.	4fyy 4d/yy	.	4f 4d/	.	.	.	.	.	.	.	4F\	.	.	.	.	.	.	.
*	*	*Xrep	*	*	*	*	*	*	*	*	*	*	*	*	*Xrep	*	*	*	*Xrep	*	*	*	*	*	*	*	*Xrep	*	*	*	*	*	*	*
=15	=15	=15	=15	=15	=15	=15	=15	=15	=15	=15	=15	=15	=15	=15	=15	=15	=15	=15	=15	=15	=15	=15	=15	=15	=15	=15	=15	=15	=15	=15	=15	=15	=15	=15
*	*	*	*	*	*	*	*	*	*	*	*	*	*	*	*	*	*	*	*	*	*	*	*	*	*	*	*^	*	*^	*	*	*	*	*
4BB-/yy	.	4BB-/	.	4BB-/	.	4B-\	.	.	4d\	.	.	4f/	auch	.	4B-/	.	4d/	.	4f/	.	1r	.	1r	.	1r	.	4BB-/	4BB-\	.	4B-/	4B-\	.	1r	.	1r	.
4B-\yy	.	4B-\	.	4BB-/	.	4B-\	.	.	4c#X\	.	.	4e/	dein	.	4B-/	.	4c#X/	.	8e/L	.	.	.	.	.	.	.	8B-L 8BB-\	4ryy	.	8B-/L	4ryy	.	.	.	.	.
.	.	.	.	.	.	.	.	.	.	.	.	.	.	.	.	.	.	.	8g/J	.	.	.	.	.	.	.	8B-J 8BB-\	.	.	8B-/J	.	.	.	.	.	.
4BB-/yy	.	4BB-/	.	4BB-/	.	4B-\	.	.	4d\	.	.	4f/	Na-	.	4B-/	.	4d/	.	4f/	.	.	.	.	.	.	.	4B- 4BB-\	2ryy	.	4B-/	2ryy	.	.	.	.	.
4B-\yy	.	4B-\	.	4BB-/	.	4B-\	.	.	4c#\	.	.	4e/	-me	.	4B-/	.	4c#/	.	8e/L	.	.	.	.	.	.	.	4B- 4BB-\	.	.	4B-/	.	.	.	.	.	.
.	.	.	.	.	.	.	.	.	.	.	.	.	.	.	.	.	.	.	8g/J	.	.	.	.	.	.	.	.	.	.	.	.	.	.	.	.	.
*	*	*	*	*	*	*	*	*	*	*	*	*	*	*	*	*	*	*	*	*	*	*	*	*	*	*	*v	*v	*	*	*	*	*	*	*	*
*	*	*	*	*	*	*	*	*	*	*	*	*	*	*	*	*	*	*	*	*	*	*	*	*	*	*	*	*	*v	*v	*	*	*	*	*
=16	=16	=16	=16	=16	=16	=16	=16	=16	=16	=16	=16	=16	=16	=16	=16	=16	=16	=16	=16	=16	=16	=16	=16	=16	=16	=16	=16	=16	=16	=16	=16	=16	=16	=16
4BB-/yy	.	4BB-/	.	4BB-/	.	4B-\	.	.	4d\	.	.	4f/	hi-	.	4B-/	.	4d/	.	4f/	.	1r	.	1r	.	1r	.	4B- 4BB-\	.	4B-/	.	1r	.	1ryy	.
4B-\yy	.	4B-\	.	4BB-/	.	4B-\	.	.	4d\	.	.	4b-\	-mi-	.	4B-/	.	4f 4d/	.	4b-X 4d/	.	.	.	.	.	.	.	4B- 4BB-\	.	4B-/	.	.	.	.	.
4BB-/yy	.	4BB-/	.	4B-^<\	.	4f^<\	.	.	4b-^<\	.	.	4dd^<\	-lan	.	4B-^</	.	4f 4d^</	.	4dd 4d^</	.	.	.	.	.	.	.	4B- 4BB-^<\	.	4B-^>/	.	.	.	.	.
8AA/Lyy	.	8AA/L	.	4r	.	4r	.	.	4r	.	.	4r	.	.	8A/L	.	4r	.	4r	.	.	.	.	.	.	.	8AL 8AA\	.	4r	.	.	.	.	.
8BB-/Jyy	.	8BB-/J	.	.	.	.	.	.	.	.	.	.	.	.	8B-/J	.	.	.	.	.	.	.	.	.	.	.	8B-J 8BB-\	.	.	.	.	.	.	.
!!LO:PB:g=original
=17	=17	=17	=17	=17	=17	=17	=17	=17	=17	=17	=17	=17	=17	=17	=17	=17	=17	=17	=17	=17	=17	=17	=17	=17	=17	=17	=17	=17	=17	=17	=17	=17	=17	=17
*	*	*	*	*	*	*	*	*	*	*	*	*	*	*	*	*	*	*	*	*	*	*	*	*	*^	*	*^	*	*	*	*	*	*	*
4BBn\yy	.	4BBn\	.	4.d\	.	4.d\	.	.	4.dd\	.	.	4.dd\	Wohl	.	4Bn\	.	4.dd 4.d/	.	4.dd 4.d/	.	1r	.	1r	.	4f/	4f\	.	4Bn 4BBny\	4ryy	.	4aa-X 4dd\	.	4aa-X 4ff\	.	4ddd\	.
4A-X\yy	.	4A-X\	.	.	.	.	.	.	.	.	.	.	.	.	4A-X/	.	.	.	.	.	.	.	.	.	4r	4ryy	.	4A-X/	4A-\	.	4r	.	4r	.	4r	.
.	.	.	.	8D\	.	8D/	.	.	8d\	.	.	8d/	ge-	.	.	.	8f/	.	8a-X/	.	.	.	.	.	.	.	.	.	.	.	.	.	.	.	.	.
4F\yy	.	4F\	.	4D\	.	4D/	.	.	4d\	.	.	4d/	-spro-	.	4F/	.	4f/	.	4a-/	.	.	.	.	.	2r	2ryy	.	4F/	4F\	.	2r	.	2r	.	2r	.
4A-\yy	.	4A-\	.	4D\	.	4D/	.	.	4d\	.	.	4d/	-chen	.	4A-/	.	4f/	.	4a-/	.	.	.	.	.	.	.	.	4A-/	4A-\	.	.	.	.	.	.	.
=18	=18	=18	=18	=18	=18	=18	=18	=18	=18	=18	=18	=18	=18	=18	=18	=18	=18	=18	=18	=18	=18	=18	=18	=18	=18	=18	=18	=18	=18	=18	=18	=18	=18	=18	=18	=18
*	*	*rep	*	*	*	*	*	*	*	*	*	*	*	*	*rep	*	*rep	*	*rep	*	*	*	*	*	*rep	*rep	*	*	*	*	*rep	*	*rep	*	*rep	*
4BBn\yy	.	4BBn\	.	4.d 4.D\	.	4.d\	.	.	4.dd\	.	.	4.dd\	wohl	.	4Bn\	.	4.dd 4.d/	.	4.dd 4.d/	.	1r	.	1r	.	4f/	4f\	.	4BBn/	4BBn\	.	4aa-X 4dd\	.	4aa-X 4ff\	.	4ddd\	.
4A-X\yy	.	4A-X\	.	.	.	.	.	.	.	.	.	.	.	.	4A-X/	.	.	.	.	.	.	.	.	.	4r	4ryy	.	4A-X/	4A-\	.	4r	.	4r	.	4r	.
.	.	.	.	8D\	.	8D/	.	.	8d\	.	.	8d/	ge-	.	.	.	8f/	.	8a-X/	.	.	.	.	.	.	.	.	.	.	.	.	.	.	.	.	.
4F\yy	.	4F\	.	4D\	.	4D/	.	.	4d\	.	.	4d/	-spro-	.	4F/	.	4f/	.	4a-/	.	.	.	.	.	2r	2ryy	.	4F/	4F\	.	2r	.	2r	.	2r	.
4A-\yy	.	4A-\	.	4D\	.	4D/	.	.	4d\	.	.	4d/	-chen,	.	4A-/	.	4f/	.	4a-/	.	.	.	.	.	.	.	.	4A-/	4A-\	.	.	.	.	.	.	.
*	*	*Xrep	*	*	*	*	*	*	*	*	*	*	*	*	*Xrep	*	*Xrep	*	*Xrep	*	*	*	*	*	*Xrep	*Xrep	*	*	*	*	*Xrep	*	*Xrep	*	*Xrep	*
*	*	*	*	*	*	*	*	*	*	*	*	*	*	*	*	*	*	*	*	*	*	*	*	*	*v	*v	*	*	*	*	*	*	*	*	*	*
=19	=19	=19	=19	=19	=19	=19	=19	=19	=19	=19	=19	=19	=19	=19	=19	=19	=19	=19	=19	=19	=19	=19	=19	=19	=19	=19	=19	=19	=19	=19	=19	=19	=19	=19	=19
4BBn/yy	.	4BBn/	.	4F\	.	4F/	.	.	4f\	.	.	4f/	Kö-	.	4Bn/	.	4f/	.	4a-X/	.	1r	.	1r	.	4f 4F/	.	4BBn/	4BBn\	.	1r	.	1r	.	1r	.
4BB/yy	.	4BB/	.	4F\	.	4F/	.	.	4f\	.	.	4f/	-nig	.	4B/	.	4e/	.	8g/L	.	.	.	.	.	8fL 8F/	.	4BB/	4BB\	.	.	.	.	.	.	.
.	.	.	.	.	.	.	.	.	.	.	.	.	.	.	.	.	.	.	8b-X/J	.	.	.	.	.	8fJ 8F/	.	.	.	.	.	.	.	.	.	.
4BB/yy	.	4BB/	.	4F\	.	4F/	.	.	4f\	.	.	4f/	Mi-	.	4B/	.	4f/	.	4a-/	.	.	.	.	.	4f 4F/	.	4BB/	4BB\	.	.	.	.	.	.	.
4BB/yy	.	4BB/	.	4F\	.	4F/	.	.	4f\	.	.	4f/	-das	.	4B/	.	4e/	.	8g/L	.	.	.	.	.	4f 4F/	.	4BB/	4BB\	.	.	.	.	.	.	.
.	.	.	.	.	.	.	.	.	.	.	.	.	.	.	.	.	.	.	8b-/J	.	.	.	.	.	.	.	.	.	.	.	.	.	.	.	.
=20	=20	=20	=20	=20	=20	=20	=20	=20	=20	=20	=20	=20	=20	=20	=20	=20	=20	=20	=20	=20	=20	=20	=20	=20	=20	=20	=20	=20	=20	=20	=20	=20	=20	=20	=20
!	!	!	!	!	!	!	!	!	!	!	!	!	!	!	!	!	!	!	!	!	!	!	!	!	!	!	!LO:SIC:v:s=BBn	!	!	!	!	!	!	!	!
!	!	!	!	!	!	!	!	!	!	!	!	!	!	!	!	!	!	!	!	!	!	!	!	!	!	!	!LO:SIC:v:s=BBn	!	!	!	!	!	!	!	!
4BBn/yy	.	4BBn/	.	4F\	.	4F/	.	.	4f\	.	.	4f/	le-	.	4Bn/	.	4f/	.	4a-X/	.	1r	.	1r	.	4f 4F/	.	4BB-/	4BB-\	.	1r	.	1r	.	1r	.
!	!	!	!	!	!	!	!	!	!	!	!	!	!	!	!	!	!	!	!	!	!	!	!	!	!	!	!LO:SIC:v:s=BBn	!	!	!	!	!	!	!	!
!	!	!	!	!	!	!	!	!	!	!	!	!	!	!	!	!	!	!	!	!	!	!	!	!	!	!	!LO:SIC:v:s=BBn	!	!	!	!	!	!	!	!
4BB/yy	.	4BB/	.	4F\	.	4F/	.	.	4f\	.	.	4f/	-be	.	4B/	.	4dd 4f\	.	4dd\	.	.	.	.	.	4f 4F/	.	4BB-/	4BB-\	.	.	.	.	.	.	.
*	*	*	*	*2\right	*	*	*	*	*2\right	*	*	*2\right	*	*	*	*	*	*	*	*	*	*	*	*	*	*	*	*	*	*	*	*	*	*	*
!	!	!	!	!	!	!	!	!	!	!	!	!	!	!	!	!	!	!	!	!	!	!	!	!	!	!	!LO:SIC:v:s=BBn	!	!	!	!	!	!	!	!
!	!	!	!	!	!	!	!	!	!	!	!	!	!	!	!	!	!	!	!	!	!	!	!	!	!	!	!LO:SIC:v:s=BBn	!	!	!	!	!	!	!	!
4BB^</yy	.	4BB^</	.	(>[<2F\	.	(>[<2f\	.	.	(>[<2f\	.	.	[>2ff\	hoch!	.	4B/	.	4dd 4f^>\	.	4ff^<\	.	.	.	.	.	4f 4F^</	.	4BB-/	4BB-\^<	.	.	.	.	.	.	.
4ryy	.	4r	.	.	.	.	.	.	.	.	.	.	.	.	4r	.	4r	.	4r	.	.	.	.	.	4r	ff	8AA#X/L	8AA#\L	.	.	.	.	.	.	.
!	!	!	!	!	!	!	!	!	!	!	!	!	!	!	!	!	!	!	!	!	!	!	!	!	!	!	!LO:SIC:v:s=BBn	!	!	!	!	!	!	!	!
!	!	!	!	!	!	!	!	!	!	!	!	!	!	!	!	!	!	!	!	!	!	!	!	!	!	!	!LO:SIC:v:s=BBn	!	!	!	!	!	!	!	!
.	.	.	.	.	.	.	.	.	.	.	.	.	.	.	.	.	.	.	.	.	.	ff	.	ff	.	.	8BB-/J	8BB-\J	.	.	.	.	.	.	.
=21	=21	=21	=21	=21	=21	=21	=21	=21	=21	=21	=21	=21	=21	=21	=21	=21	=21	=21	=21	=21	=21	=21	=21	=21	=21	=21	=21	=21	=21	=21	=21	=21	=21	=21	=21
*	*	*	*	*	*	*	*	*	*	*	*	*	*	*	*	*	*	*	*	*	*	*	*	*	*	*	*	*	*	*^	*	*^	*	*	*
*	*	*	*	*	*	*	*	*	*	*	*	*	*	*	*2\right	*	*2\right	*	*2\right	*	*	*	*2\right	*	*	*	*	*	*	*	*	*	*	*	*	*	*
!	!	!	!	!	!	!	!	!	!	!	!	!	!	!	!	!	!	!	!	!	!	!	!	!	!	!	!	!	!	!	!	!	!	!	!LO:DY:b:rj	!	!
2C/	.	2C 2CC/	.	2F\]	.	2f\]	.	.	2f\]	.	.	(>2ff\]	.	.	2cc 2c\	.	2ff 2a\	.	2ff 2a\	.	2CT/	.	2aa 2ff\	.	2c 2C/	.	2C/	2C\	ff	2ff/	2f\	ff	2ff/	2a\	ff	2fff\	ff
4C/	.	4C 4CC/	.	4E\	.	4e\	.	.	4e\	.	.	4ee\	.	.	4cc 4c\	.	4ee 4a\	.	4ee 4a\	.	4C/	.	4aa 4ff\	.	4c 4C/	.	4C/	4C\	.	4ee/	4f\	.	4ee/	4a\	.	4eee\	.
4C/	.	4C 4CC/	.	4D\	.	4d\	.	.	4d\	.	.	4dd\	.	.	4c\	.	4dd\	.	4dd\	.	4C/	.	4aa 4ff\	.	4c 4C/	.	4C/	4C\	.	4dd/	4f\	.	4dd/	4a\	.	4ddd\	.
=22	=22	=22	=22	=22	=22	=22	=22	=22	=22	=22	=22	=22	=22	=22	=22	=22	=22	=22	=22	=22	=22	=22	=22	=22	=22	=22	=22	=22	=22	=22	=22	=22	=22	=22	=22	=22	=22
*	*	*	*	*	*	*	*	*	*	*	*	*	*	*	*	*	*	*	*	*	*	*	*^	*	*	*	*	*	*	*	*	*	*	*	*	*	*
!	!	!	!	!	!	!	!	!	!	!	!	!	!	!	!	!LO:DY:b:rj	!	!	!	!	!	!	!	!	!	!	!	!	!	!	!	!	!	!	!	!	!	!
4C/	.	4C 4CC/	.	2C\)	.	2c\)	.	.	2c\)	.	.	2cc\)	.	.	4E'/	p	4cc'\	p	4cc'\	p	4C/	p	4gg/	4cc\	.	4c 4C/	.	4C/	4C\	.	4cc/	4e\	.	4cc/	4b-\	.	4ccc\	.
4r	.	4C'/	.	.	.	.	.	.	.	.	.	.	.	.	4G'/	.	4b-'\	.	4b-'\	.	4C'/	.	4r	4ryy	.	4r	.	4r	4ryy	.	4r	4ryy	.	4r	4ryy	.	4r	.
2r	.	4C'/	.	2r	.	2r	.	.	2r	.	.	2r	.	.	4c'/	.	4g'/	.	4g'/	.	4C'/	.	2r	2ryy	.	2r	.	2r	2ryy	.	2r	2ryy	.	2r	2ryy	.	2r	.
.	.	4C'/	.	.	.	.	.	.	.	.	.	.	.	.	4B-'/	.	4g'/	.	4g'/	.	4C'/	.	.	.	.	.	.	.	.	.	.	.	.	.	.	.	.	.
*	*	*	*	*	*	*	*	*	*	*	*	*	*	*	*	*	*	*	*	*	*	*	*v	*v	*	*	*	*	*	*	*	*	*	*	*	*	*	*
=23	=23	=23	=23	=23	=23	=23	=23	=23	=23	=23	=23	=23	=23	=23	=23	=23	=23	=23	=23	=23	=23	=23	=23	=23	=23	=23	=23	=23	=23	=23	=23	=23	=23	=23	=23	=23	=23
!	!	!	!	!	!	!	!	!	!	!	!	!	!	!	!	!	!	!	!	!	!	!	!	!	!	!	!	!	!	!LO:TX:a:t=P:problem:takty 23-24 zapisane znakiem repetycji	!	!	!	!LO:TX:a:t=P:problem:takty 23-24 zapisane znakiem repetycji	!	!LO:TX:a:t=P:problem:takty 23-24 zapisane znakiem repetycji	!
!LO:TX:a:t=P:problem:takty 23-24 zapisane znakiem repetycji	!	!LO:TX:a:t=P:problem:takty 23-24 zapisane znakiem repetycji	!	!	!	!	!	!	!	!	!	!	!	!	!	!	!	!	!	!	!	!	!	!	!LO:TX:a:t=P:problem:takty 23-24 zapisane znakiem repetycji	!	!	!LO:TX:a:t=P:problem:takty 23-24 zapisane znakiem repetycji	!	!	!	!	!	!	!	!	!
2C/yy	.	2Cyy 2CC/yy	.	(>2F\	.	(>2f\	.	.	(>2f\	.	.	(>2ff\	hoch!	.	2cc 2c\	.	2ff 2a\	.	2ff 2a\	.	2CT/	.	2aa 2ff\	.	2cyy 2C/yy	.	2C/yy	2C\yy	.	2ff/yy	2f\yy	.	2ff/yy	2a\yy	.	2fff\yy	.
4C/yy	.	4Cyy 4CC/yy	.	4E\	.	4e\	.	.	4e\	.	.	4ee\	.	.	4cc 4c\	.	4ee 4a\	.	4ee 4a\	.	4C/	.	4aa 4ff\	.	4cyy 4C/yy	.	4C/yy	4C\yy	.	4ee/yy	4f\yy	.	4ee/yy	4a\yy	.	4eee\yy	.
4C/yy	.	4Cyy 4CC/yy	.	4D\	.	4d\	.	.	4d\	.	.	4dd\	.	.	4c\	.	4dd\	.	4dd\	.	4C/	.	4aa 4ff\	.	4cyy 4C/yy	.	4C/yy	4C\yy	.	4dd/yy	4f\yy	.	4dd/yy	4a\yy	.	4ddd\yy	.
=24	=24	=24	=24	=24	=24	=24	=24	=24	=24	=24	=24	=24	=24	=24	=24	=24	=24	=24	=24	=24	=24	=24	=24	=24	=24	=24	=24	=24	=24	=24	=24	=24	=24	=24	=24	=24	=24
4C/yy	.	4Cyy 4CC/yy	.	2C\)	.	2c\)	.	.	2c\)	.	.	2cc\)	.	.	4E/	.	4dd\	.	4dd\	.	4C/	.	4gg 4cc\	.	4cyy 4C/yy	.	4C/yy	4C\yy	.	4cc/yy	4e\yy	.	4cc/yy	4b-\yy	.	4ccc\yy	.
4ryy	.	4C'/yy	.	.	.	.	.	.	.	.	.	.	.	.	4G/	.	4cc\	.	4cc\	.	8C/L	.	8ccL 8c/	.	4ryy	.	4ryy	4ryy	.	4ryy	4ryy	.	4ryy	4ryy	.	4ryy	.
.	.	.	.	.	.	.	.	.	.	.	.	.	.	.	.	.	.	.	.	.	8C/J	.	8ccJ 8c/	.	.	.	.	.	.	.	.	.	.	.	.	.	.
2ryy	.	4C'/yy	.	2r	.	2r	.	.	2r	.	.	2r	.	.	4c/	.	4g/	.	4g/	.	4C/	.	4cc 4c/	.	2ryy	.	2ryy	2ryy	.	2ryy	2ryy	.	2ryy	2ryy	.	2ryy	.
.	.	4C'/yy	.	.	.	.	.	.	.	.	.	.	.	.	4g\	.	4b-\	.	4cc/	.	4C/	.	4cc 4c/	.	.	.	.	.	.	.	.	.	.	.	.	.	.
*	*	*	*	*	*	*	*	*	*	*	*	*	*	*	*	*	*	*	*	*	*	*	*	*	*	*	*v	*v	*	*	*	*	*v	*v	*	*	*
*	*	*	*	*	*	*	*	*	*	*	*	*	*	*	*	*	*	*	*	*	*	*	*	*	*	*	*	*	*v	*v	*	*	*	*	*
!!LO:PB:g=original
=25	=25	=25	=25	=25	=25	=25	=25	=25	=25	=25	=25	=25	=25	=25	=25	=25	=25	=25	=25	=25	=25	=25	=25	=25	=25	=25	=25	=25	=25	=25	=25	=25	=25	=25
!LO:TX:a:i:t=Col. Cello.	!	!	!	!	!	!	!	!	!	!	!	!	!	!	!	!	!	!	!	!	!	!	!	!	!LO:TX:a:i:t=Col Trombe	!	!	!	!LO:TX:a:i:t=Col. Oboi	!	!	!	!	!
!	!	!	!	!	!	!	!	!	!	!	!	!	!	!	!	!	!LO:TX:a:i:t=Col. 1mo	!	!	!	!	!	!	!	!	!	!	!	!	!	!	!	!	!
4F\yy	.	4F\	.	1r	.	4.f\	le-	.	1r	.	.	1r	.	.	4.f\	.	4.ffyy 4.a\yy	.	4.ff 4.a\	.	1FT	.	4.cc 4.f/	.	4.cyy 4.F/yy	.	4.F 4.FF/	.	4.ffyy 4.a\yy	.	4.ff 4.a\	.	4.fff\	.
4F\yy	.	4F\	.	.	.	.	.	.	.	.	.	.	.	.	.	.	.	.	.	.	.	.	.	.	.	.	.	.	.	.	.	.	.	.
.	.	.	.	.	.	8c\	-be	.	.	.	.	.	.	.	8f\	.	8cc\yy	.	8cc\	.	.	.	8cc 8f/	.	8cyy 8F/yy	.	8F 8FF/	.	8ccyy 8a\yy	.	8cc 8a\	.	8ccc\	.
4F\yy	.	4F\	.	.	.	4c\	hoch!	.	.	.	.	.	.	.	4f\	.	4cc\yy	.	4cc\	.	.	.	4cc 4f/	.	4cyy 4F/yy	.	4F 4FF/	.	4ccyy 4a\yy	.	4cc 4a\	.	4ccc\	.
4F\yy	.	4F\	.	.	.	4r	.	.	.	.	.	.	.	.	4f\	.	4cc\yy	.	4cc\	.	.	.	4cc 4f/	.	4cyy 4F/yy	.	4F 4FF/	.	4ccyy 4a\yy	.	4cc 4a\	.	4ccc\	.
=26	=26	=26	=26	=26	=26	=26	=26	=26	=26	=26	=26	=26	=26	=26	=26	=26	=26	=26	=26	=26	=26	=26	=26	=26	=26	=26	=26	=26	=26	=26	=26	=26	=26	=26
*	*	*	*	*	*	*	*	*	*	*	*	*	*	*	*	*	*	*	*	*	*	*	*^	*	*^	*	*^	*	*^	*	*^	*	*	*
*rep	*	*rep	*	*	*	*	*	*	*	*	*	*	*	*	*	*	*	*	*	*	*	*	*	*	*	*	*	*	*	*	*	*	*	*	*	*	*	*	*
4F\yy	.	4F\	.	4.F\	.	4.f\	.	.	4.f\	.	.	4.ff\	le-	.	4f\	.	4cc\yy	.	4cc\	.	4F\	.	4cc 4f/	4ryy	.	4cyy 4F/yy	4ryy	.	4F 4FF/	4ryy	.	4ccyy 4a\yy	4ryy	.	4cc 4a\	4ryy	.	4ccc\	.
4F\yy	.	4F\	.	.	.	.	.	.	.	.	.	.	.	.	4r	.	4ryy	.	4r	.	4F\	.	4f/	4f\	.	4F/yy	4F\yy	.	4F'/	4F\	.	8bn/Lyy	4g#X\yy	.	8bn/L	4g#X\	.	4r	.
.	.	.	.	8F\	.	8F/	.	.	8f\	.	.	8f/	-be	.	.	.	.	.	.	.	.	.	.	.	.	.	.	.	.	.	.	8dd/Jyy	.	.	8dd/J	.	.	.	.
4F\yy	.	4F\	.	4F\	.	4F/	.	.	4f\	.	.	4f/	hoch!	.	2r	.	2ryy	.	2r	.	4F\	.	4f/	4f\	.	4F/yy	4F\yy	.	4F'/	4F\	.	4ccyy 4a\yy	2ryy	.	4cc 4a\	2ryy	.	2r	.
4F\yy	.	4F\	.	4r	.	4r	.	.	4r	.	.	4r	.	.	.	.	.	.	.	.	4F\	.	4f/	4f\	.	4F/yy	4F\yy	.	4F'/	4F\	.	4ffyy 4a\yy	.	.	4ff 4a\	.	.	.	.
*Xrep	*	*Xrep	*	*	*	*	*	*	*	*	*	*	*	*	*	*	*	*	*	*	*	*	*	*	*	*	*	*	*	*	*	*	*	*	*	*	*	*	*
*	*	*	*	*	*	*	*	*	*	*	*	*	*	*	*	*	*	*	*	*	*	*	*v	*v	*	*	*	*	*v	*v	*	*v	*v	*	*v	*v	*	*	*
*	*	*	*	*	*	*	*	*	*	*	*	*	*	*	*	*	*	*	*	*	*	*	*	*	*v	*v	*	*	*	*	*	*	*	*	*
=27	=27	=27	=27	=27	=27	=27	=27	=27	=27	=27	=27	=27	=27	=27	=27	=27	=27	=27	=27	=27	=27	=27	=27	=27	=27	=27	=27	=27	=27	=27	=27	=27	=27	=27
*rep	*	*rep	*	*	*	*	*	*	*	*	*	*	*	*	*	*	*	*	*	*	*	*	*	*	*	*	*	*	*	*	*	*	*	*
4F\yy	.	4F\	.	1r	.	1r	.	.	4.a\	le-	.	1r	.	.	4.f\	.	4.aayy 4.a\yy	.	4.aa 4.a\	.	1FT	.	4.ff 4.f/	.	4.fyy 4.F/yy	.	4.F 4.FF/	.	4.aayy 4.a\yy	.	4.aa 4.a\	.	4.aaa\	.
4F\yy	.	4F\	.	.	.	.	.	.	.	.	.	.	.	.	.	.	.	.	.	.	.	.	.	.	.	.	.	.	.	.	.	.	.	.
.	.	.	.	.	.	.	.	.	8f\	-be	.	.	.	.	8f\	.	8ffyy 8a\yy	.	8ff 8a\	.	.	.	8ff 8f/	.	8fyy 8F/yy	.	8F 8FF/	.	8ffyy 8a\yy	.	8ff 8a\	.	8fff\	.
4F\yy	.	4F\	.	.	.	.	.	.	4f\	hoch	.	.	.	.	4f\	.	4ffyy 4a\yy	.	4ff 4a\	.	.	.	4ff 4f/	.	4fyy 4F/yy	.	4F 4FF/	.	4ffyy 4a\yy	.	4ff 4a\	.	4fff\	.
4F\yy	.	4F\	.	.	.	.	.	.	4r	.	.	.	.	.	4f\	.	4ffyy 4a\yy	.	4ff 4a\	.	.	.	4ff 4f/	.	4fyy 4F/yy	.	4F 4FF/	.	4ffyy 4a\yy	.	4ff 4a\	.	4fff\	.
*Xrep	*	*Xrep	*	*	*	*	*	*	*	*	*	*	*	*	*	*	*	*	*	*	*	*	*	*	*	*	*	*	*	*	*	*	*	*
=28	=28	=28	=28	=28	=28	=28	=28	=28	=28	=28	=28	=28	=28	=28	=28	=28	=28	=28	=28	=28	=28	=28	=28	=28	=28	=28	=28	=28	=28	=28	=28	=28	=28	=28
*	*	*	*	*	*	*	*	*	*	*	*	*	*	*	*	*	*	*	*	*	*	*	*^	*	*^	*	*	*	*^	*	*^	*	*	*
*rep	*	*rep	*	*	*	*	*	*	*	*	*	*	*	*	*	*	*	*	*	*	*	*	*	*	*	*	*	*	*	*	*	*	*	*	*	*	*	*
4F\yy	.	4F\	.	4.F\	.	4.f\	.	.	4.f\	.	.	4.ff\	le-	.	4f\	.	4ffyy 4a\yy	.	4ff 4a\	.	4F\	.	4ff 4f/	4ryy	.	4fyy 4F/yy	4ryy	.	4F 4FF/	.	4ffyy 4a\yy	4ryy	.	4ff 4a\	4ryy	.	4fff\	.
4F\yy	.	4F\	.	.	.	.	.	.	.	.	.	.	.	.	4r	.	4ryy	.	4r	.	4F\	.	4f/	4f\	.	4F/yy	4F\yy	.	4c 4F'\	.	8ee\Lyy	4a\yy	.	8ee\L	4a\	.	4r	.
.	.	.	.	8F\	.	8F/	.	.	8f\	.	.	8f/	-be	.	.	.	.	.	.	.	.	.	.	.	.	.	.	.	.	.	8gg\Jyy	.	.	8gg\J	.	.	.	.
4F\yy	.	4F\	.	4F\	.	4F/	.	.	4f\	.	.	4f/	hoch!	.	2r	.	2ryy	.	2r	.	4F\	.	4f/	4f\	.	4F/yy	4F\yy	.	4c 4F'\	.	4ffyy 4a\yy	2ryy	.	4ff 4a\	2ryy	.	2r	.
4F\yy	.	4F\	.	4r	.	4r	.	.	4r	.	.	4r	.	.	.	.	.	.	.	.	4F\	.	4f/	4f\	.	4F/yy	4F\yy	.	4c 4F'\	.	4aayy 4a\yy	.	.	4aa 4a\	.	.	.	.
*Xrep	*	*Xrep	*	*	*	*	*	*	*	*	*	*	*	*	*	*	*	*	*	*	*	*	*	*	*	*	*	*	*	*	*	*	*	*	*	*	*	*
*	*	*	*	*	*	*	*	*	*	*	*	*	*	*	*	*	*	*	*	*	*	*	*	*	*	*	*	*	*	*	*v	*v	*	*	*	*	*	*
*	*	*	*	*	*	*	*	*	*	*	*	*	*	*	*	*	*	*	*	*	*	*	*	*	*	*	*	*	*	*	*	*	*v	*v	*	*	*
=29	=29	=29	=29	=29	=29	=29	=29	=29	=29	=29	=29	=29	=29	=29	=29	=29	=29	=29	=29	=29	=29	=29	=29	=29	=29	=29	=29	=29	=29	=29	=29	=29	=29	=29	=29	=29
*	*	*	*	*	*	*	*	*	*	*	*	*	*	*	*	*	*	*	*	*	*	*	*	*	*	*	*	*	*^	*	*	*	*	*	*	*
*	*	*	*	*	*	*	*	*	*	*	*	*	*	*	*tremolo	*	*tremolo	*	*tremolo	*	*	*	*	*	*	*	*	*	*	*	*	*	*	*	*	*	*
4F\yy	.	4F\	.	[>1c	.	[>1c	.	.	[>1cc	.	.	[>1cc	hoch!	.	8f\L	.	8cccLyy 8cc\yy	.	8cccL 8cc\	.	4F\	.	4aa/	4f\	.	4a/yy	4F\yy	.	4F 4FF/	4ryy	.	4ff 4a\	.	4aa 4ff\	f	[>1ccc	.
.	.	.	.	.	.	.	.	.	.	.	.	.	.	.	8f\J	.	8ccc 8cc\	.	8ccc 8cc\	.	.	.	.	.	.	.	.	.	.	.	.	.	.	.	.	.	.
4C\yy	.	4C\	.	.	.	.	.	.	.	.	.	.	.	.	8c\L	.	8ccc 8cc\	.	8ccc 8cc\	.	4C/	.	4gg/	4cc/	.	4g/yy	4c/yy	.	4C/	4C\	.	4ee 4g\	.	4gg 4ee\	.	.	.
.	.	.	.	.	.	.	.	.	.	.	.	.	.	.	8c\J	.	8ccc 8cc\	.	8ccc 8cc\	.	.	.	.	.	.	.	.	.	.	.	.	.	.	.	.	.	.
4F\yy	.	4F\	.	.	.	.	.	.	.	.	.	.	.	.	8f\L	.	8ccc 8cc\	.	8ccc 8cc\	.	4F\	.	4aa/	4ff\	.	4a/yy	4f\yy	.	4F 4FF/	4ryy	.	4ff 4a\	.	4aa 4ff\	.	.	.
.	.	.	.	.	.	.	.	.	.	.	.	.	.	.	8f\J	.	8ccc 8cc\	.	8ccc 8cc\	.	.	.	.	.	.	.	.	.	.	.	.	.	.	.	.	.	.
4C\yy	.	4C\	.	.	.	.	.	.	.	.	.	.	.	.	8c\L	.	8ccc 8cc\	.	8ccc 8cc\	.	4C/	.	4gg/	4cc\	.	4g/yy	4c\yy	.	4C/	4C\	.	4ee 4g\	.	4gg 4ee\	.	.	.
.	.	.	.	.	.	.	.	.	.	.	.	.	.	.	8c\J	.	8cccJ 8cc\	.	8cccJ 8cc\	.	.	.	.	.	.	.	.	.	.	.	.	.	.	.	.	.	.
=30	=30	=30	=30	=30	=30	=30	=30	=30	=30	=30	=30	=30	=30	=30	=30	=30	=30	=30	=30	=30	=30	=30	=30	=30	=30	=30	=30	=30	=30	=30	=30	=30	=30	=30	=30	=30	=30
*rep	*	*rep	*	*	*	*	*	*	*	*	*	*	*	*	*	*	*	*	*	*	*rep	*	*	*	*	*	*	*	*rep	*rep	*	*rep	*	*rep	*	*	*
4F\yy	.	4F\	.	1c_>	.	1c_>	.	.	1cc_>	.	.	1cc_>	.	.	8f\Lyy	.	8cccLyy 8cc\yy	.	8cccL 8cc\	.	4F\	.	4aa/	4ff\	.	4a/yy	4f\yy	.	4F 4FF/	4ryy	.	4ff 4a\	.	4aa 4ff\	.	1ccc]	.
.	.	.	.	.	.	.	.	.	.	.	.	.	.	.	8f\J	.	8ccc 8cc\	.	8ccc 8cc\	.	.	.	.	.	.	.	.	.	.	.	.	.	.	.	.	.	.
4C\yy	.	4C\	.	.	.	.	.	.	.	.	.	.	.	.	8c\Lyy	.	8ccc 8cc\	.	8ccc 8cc\	.	4C/	.	4gg/	4cc\	.	4g/yy	4c\yy	.	4C/	4C\	.	4ee 4g\	.	4gg 4ee\	.	.	.
.	.	.	.	.	.	.	.	.	.	.	.	.	.	.	8c\J	.	8ccc 8cc\	.	8ccc 8cc\	.	.	.	.	.	.	.	.	.	.	.	.	.	.	.	.	.	.
4F\yy	.	4F\	.	.	.	.	.	.	.	.	.	.	.	.	8f\Lyy	.	8ccc 8cc\	.	8ccc 8cc\	.	4F\	.	4aa/	4ff\	.	4a/yy	4f\yy	.	4F 4FF/	4ryy	.	4ff 4a\	.	4aa 4ff\	.	.	.
.	.	.	.	.	.	.	.	.	.	.	.	.	.	.	8f\J	.	8ccc 8cc\	.	8ccc 8cc\	.	.	.	.	.	.	.	.	.	.	.	.	.	.	.	.	.	.
4C\yy	.	4C\	.	.	.	.	.	.	.	.	.	.	.	.	8c\Lyy	.	8ccc 8cc\	.	8ccc 8cc\	.	4C/	.	4gg/	4cc\	.	4g/yy	4c\yy	.	4C/	4C\	.	4ee 4g\	.	4gg 4ee\	.	.	.
.	.	.	.	.	.	.	.	.	.	.	.	.	.	.	8c\J	.	8cccJ 8cc\	.	8cccJ 8cc\	.	.	.	.	.	.	.	.	.	.	.	.	.	.	.	.	.	.
*Xrep	*	*Xrep	*	*	*	*	*	*	*	*	*	*	*	*	*	*	*Xtremolo	*	*Xtremolo	*	*Xrep	*	*	*	*	*	*	*	*Xrep	*Xrep	*	*Xrep	*	*Xrep	*	*	*
*	*	*	*	*	*	*	*	*	*	*	*	*	*	*	*	*	*	*	*	*	*	*	*v	*v	*	*	*	*	*	*	*	*	*	*	*	*	*
*	*	*	*	*	*	*	*	*	*	*	*	*	*	*	*	*	*	*	*	*	*	*	*	*	*v	*v	*	*	*	*	*	*	*	*	*	*
=31	=31	=31	=31	=31	=31	=31	=31	=31	=31	=31	=31	=31	=31	=31	=31	=31	=31	=31	=31	=31	=31	=31	=31	=31	=31	=31	=31	=31	=31	=31	=31	=31	=31	=31	=31
4F\yy	.	4F\	.	4c\]	.	4c\]	.	.	4cc\]	.	.	4cc\]	.	.	4f\	.	4ff 4a\	.	4fff\	.	1FT	.	4ff 4a/	.	4f 4A/	.	4F\	4FF\	.	[>1ff [<1a	.	[>1aa [<1ff	.	[>1fff	.
4ryy	.	4r	.	4r	.	4r	.	.	4r	.	.	4r	.	.	4r	.	4r	.	4r	.	.	.	4r	.	4r	.	4r	4ryy	.	.	.	.	.	.	.
2ryy	.	2r	.	2r	.	2r	.	.	2r	.	.	2r	.	.	2r	.	2r	.	2r	.	.	.	4ff 4a/	.	4f 4F/	.	4F/	4F\	.	.	.	.	.	.	.
.	.	.	.	.	.	.	.	.	.	.	.	.	.	.	.	.	.	.	.	.	.	.	4r	.	4r	.	4r	4ryy	.	.	.	.	.	.	.
=32	=32	=32	=32	=32	=32	=32	=32	=32	=32	=32	=32	=32	=32	=32	=32	=32	=32	=32	=32	=32	=32	=32	=32	=32	=32	=32	=32	=32	=32	=32	=32	=32	=32	=32	=32
*	*	*	*	*	*	*	*	*	*	*	*	*	*	*	*	*	*rep	*	*	*	*	*	*rep	*	*	*	*	*	*	*rep	*	*rep	*	*rep	*
4F\yy	.	4F\	.	1r	.	1r	.	.	1r	.	.	1r	.	.	4a 4f\	.	4ff 4a\	.	4fff 4ff\	.	1FTT	.	4ff 4a/	.	4c 4C/	.	4C/	4C\	.	1ff_> 1a_<	.	1aa_> 1ff_<	.	1fff_>	.
4ryy	.	4r	.	.	.	.	.	.	.	.	.	.	.	.	4r	.	4r	.	4r	.	.	.	4r	.	4r	.	4r	4ryy	.	.	.	.	.	.	.
2ryy	.	2r	.	.	.	.	.	.	.	.	.	.	.	.	2r	.	2r	.	2r	.	.	.	4ff 4a/	.	4a\ 4A\	.	4A\	4AA\	.	.	.	.	.	.	.
.	.	.	.	.	.	.	.	.	.	.	.	.	.	.	.	.	.	.	.	.	.	.	4r	.	4r	.	4r	4ryy	.	.	.	.	.	.	.
*	*	*	*	*	*	*	*	*	*	*	*	*	*	*	*	*	*Xrep	*	*	*	*	*	*Xrep	*	*	*	*	*	*	*Xrep	*	*Xrep	*	*Xrep	*
=33	=33	=33	=33	=33	=33	=33	=33	=33	=33	=33	=33	=33	=33	=33	=33	=33	=33	=33	=33	=33	=33	=33	=33	=33	=33	=33	=33	=33	=33	=33	=33	=33	=33	=33	=33
*	*	*	*	*	*	*	*	*	*	*	*	*	*	*	*rep	*	*rep	*	*rep	*	*	*	*rep	*	*	*	*	*	*	*rep	*	*rep	*	*rep	*
!	!	!	!	!	!	!	!	!	!	!	!	!	!	!	!	!	!	!	!	!	!	!	!	!	!	!	!	!LO:TX:a:t=P:problem:takty 33-34 zapisane znakiem repetycji	!	!	!	!	!	!	!
4F\yy	.	4F\	.	1r	.	1r	.	.	1r	.	.	1r	.	.	4a 4f\	.	4ff 4a\	.	4fff 4ff\	.	1FTTT	.	4ff 4a/	.	4f 4F/	.	4F\yy	4FF\yy	.	1ff_> 1a_<	.	1aa_> 1ff_<	.	1fff_>	.
4ryy	.	4r	.	.	.	.	.	.	.	.	.	.	.	.	4r	.	4r	.	4r	.	.	.	4r	.	4r	.	4ryy	4ryy	.	.	.	.	.	.	.
2ryy	.	2r	.	.	.	.	.	.	.	.	.	.	.	.	2r	.	2r	.	2r	.	.	.	4ff 4a/	.	4f 4F/	.	4F/yy	4F\yy	.	.	.	.	.	.	.
.	.	.	.	.	.	.	.	.	.	.	.	.	.	.	.	.	.	.	.	.	.	.	4r	.	4r	.	4ryy	4ryy	.	.	.	.	.	.	.
*	*	*	*	*	*	*	*	*	*	*	*	*	*	*	*Xrep	*	*Xrep	*	*Xrep	*	*	*	*Xrep	*	*	*	*	*	*	*Xrep	*	*Xrep	*	*Xrep	*
=34	=34	=34	=34	=34	=34	=34	=34	=34	=34	=34	=34	=34	=34	=34	=34	=34	=34	=34	=34	=34	=34	=34	=34	=34	=34	=34	=34	=34	=34	=34	=34	=34	=34	=34	=34
*	*	*	*	*	*	*	*	*	*	*	*	*	*	*	*rep	*	*rep	*	*rep	*	*	*	*rep	*	*	*	*	*	*	*rep	*	*rep	*	*rep	*
4F\yy	.	4F\	.	1r	.	1r	.	.	1r	.	.	1r	.	.	4a 4f\	.	4ff 4a\	.	4fff 4ff\	.	1FTTT	.	4ff 4a/	.	4c 4C/	.	4C/yy	4C\yy	.	1ff_> 1a_<	.	1aa_> 1ff_<	.	1fff_>	.
4ryy	.	4r	.	.	.	.	.	.	.	.	.	.	.	.	4r	.	4r	.	4r	.	.	.	4r	.	4r	.	4ryy	4ryy	.	.	.	.	.	.	.
2ryy	.	2r	.	.	.	.	.	.	.	.	.	.	.	.	2r	.	2r	.	2r	.	.	.	4ff 4a/	.	4a 4A/	.	4A\yy	4AA\yy	.	.	.	.	.	.	.
.	.	.	.	.	.	.	.	.	.	.	.	.	.	.	.	.	.	.	.	.	.	.	4r	.	4r	.	4ryy	4ryy	.	.	.	.	.	.	.
*	*	*	*	*	*	*	*	*	*	*	*	*	*	*	*Xrep	*	*Xrep	*	*Xrep	*	*	*	*Xrep	*	*	*	*	*	*	*Xrep	*	*Xrep	*	*Xrep	*
*	*	*	*	*	*	*	*	*	*	*	*	*	*	*	*	*	*	*	*	*	*	*	*	*	*	*	*v	*v	*	*	*	*	*	*	*
=35	=35	=35	=35	=35	=35	=35	=35	=35	=35	=35	=35	=35	=35	=35	=35	=35	=35	=35	=35	=35	=35	=35	=35	=35	=35	=35	=35	=35	=35	=35	=35	=35	=35	=35
4F\	.	4F\	.	1r	.	1r	.	.	1r	.	.	1r	.	.	4a 4f\	.	4ff 4a\	.	4fff 4ff\	.	4F\TTT	.	4ff 4a\	.	4f 4F\	.	4F 4FF/	.	4ff] 4a\]	.	4aa] 4ff\]	.	2fff\]	.
4r	.	4r	.	.	.	.	.	.	.	.	.	.	.	.	4r	.	4r	.	4r	.	4r	.	4r	.	4r	.	4r	.	4r	.	4r	.	.	.
2r	.	2r	.	.	.	.	.	.	.	.	.	.	.	.	2r	.	2r	.	2r	.	2r	.	2r	.	2r	.	2r	.	2ryy	.	2ryy	.	2r	.
!LO:TX:b:i:t=Fine	!	!	!	!	!	!	!	!	!	!	!	!	!	!	!	!	!	!	!	!	!	!	!	!	!	!	!	!	!	!	!	!	!	!
==	==	==	==	==	==	==	==	==	==	==	==	==	==	==	==	==	==	==	==	==	==	==	==	==	==	==	==	==	==	==	==	==	==	==
*-	*-	*-	*-	*-	*-	*-	*-	*-	*-	*-	*-	*-	*-	*-	*-	*-	*-	*-	*-	*-	*-	*-	*-	*-	*-	*-	*-	*-	*-	*-	*-	*-	*-	*-
!!!system-decoration: [(s1,s2,s3,s4,s5,s6,s7,s8,s9,s10{s11,s12,s13,s14}s15,s16)]
!!!RDF**kern: > = above
!!!RDF**kern: < = below
!!!ENC: Marcin Jachim
!!!END: 2021-08-05
!!!EED: Antoni Szymański
!!!EST: 2021-09-05
